FINK
CUT[WILLKOMMEN UNS]
REG[Europa, Mitteleuropa, Deutschland]
KEY[F0986  08  D 4/4]
MEL[-5_  -5_.-3-3_1_  -7_.-6-5_
    -6_  -4_-5_-3_-5-4  -2__0_
    -2-3  -4_-5_-6_-7_  1_.23_
    2_  1_-7_-4_-5-6  -5__0_
    1_  3_.21_-7_  1__0_ //] >>
FCT[Natur -, Jahreszeiten - Lied, Fruehling]
